X:176
T:Ale Wife & Her Barrel,The. HSJJ.020
O:england
M:4/4
L:1/8
Q:200
S:HSJ Jackson,Wyresdale,Lancs.1823
R:Reel
A:Lancashire
H:1823
K:G
G2GB AGAB|G2GB dgdB|G2GB AGAB|dBGBd2d2:|
|:de/f/ ge afge|(de/f/ ge) afg2|(de/f/ ge) afgf|1edBd efg2:|2edBd efgB|]
